symbolic/24x24/apps/info.febvre.Komikku.svg

<svg xmlns="http://www.w3.org/2000/svg" width="24" height="24" version="1.1">
 <path style="opacity:0.2" d="M 20,20.5 V 22.5 H 5.5 C 4.669,22.5 4,21.831 4,21 V 18.5 Z"/>
 <path style="fill:#e4e4e4" d="M 20,20 V 22 H 5.5 C 4.669,22 4,21.331 4,20.5 V 18.5 Z"/>
 <path style="opacity:0.1" d="M 20,19.5 V 20.5 H 5.5 C 4.669,20.5 4,19.831 4,19 V 16.5 Z"/>
 <path style="fill:#ee4035" d="M 5.5,2 H 20 V 20 H 5.5 C 4.669,20 4,19.331 4,18.5 V 3.5 C 4,2.669 4.669,2 5.5,2 Z"/>
 <path style="opacity:0.2" d="M 9.2629,7.4275 C 9.0431,7.2894 8.9533,7.1783 9.0233,7.131 9.0539,7.1103 9.4711,7.0776 9.9504,7.0583 10.617,7.0315 11.035,6.9695 11.73,6.7941 13.082,6.4531 13.207,6.4391 13.501,6.597 13.991,6.8596 14.119,7.0928 13.89,7.3035 13.741,7.4411 13.606,7.4511 11.434,7.4876 9.8763,7.5138 9.3783,7.5 9.2629,7.4275 Z M 7.3895,15.734 7.2559,15.469 7.262,13.135 C 7.2685,10.641 7.2544,10.405 7.0776,10.048 6.8265,9.5414 7.2243,9.3112 7.7071,9.6836 7.9497,9.8708 7.9498,9.871 7.975,10.251 8.01,10.778 8.0079,12.927 7.9711,14.372 7.9345,15.807 7.8987,16 7.6702,16 7.5585,16 7.4909,15.936 7.3895,15.734 Z M 9.6501,13.531 C 9.5712,13.181 9.5271,12.434 9.4996,10.983 9.4742,9.6487 9.4624,9.4651 9.3857,9.2189 9.3387,9.0677 9.3002,8.9218 9.3002,8.8945 9.3002,8.779 9.6197,8.8575 9.7078,8.9946 9.7826,9.1109 9.8617,9.133 10.063,9.0937 10.206,9.0659 11.157,8.9124 11.931,8.7525 13.854,8.3558 14.416,8.4136 14.497,9.0167 14.509,9.1123 14.486,9.3911 14.445,9.6363 14.33,10.317 13.714,13.315 13.677,13.368 13.66,13.394 12.877,13.438 11.938,13.466 10.905,13.497 10.001,13.554 9.957,13.61 9.8409,13.757 9.6926,13.719 9.6501,13.531 Z M 11.261,12.915 C 11.349,12.858 11.412,12.476 11.454,11.746 11.474,11.404 11.467,11.312 11.416,11.266 11.381,11.234 11.141,11.261 10.883,11.325 10.296,11.471 10.051,11.547 10.091,12.314 10.106,12.599 10.138,12.862 10.163,12.899 10.215,12.978 11.141,12.991 11.261,12.915 Z M 13.2,12.339 C 13.333,11.768 13.556,10.167 13.58,9.6059 13.601,9.1481 13.597,9.1272 13.497,9.0676 13.336,8.9716 12.542,9.0784 12.424,9.212 12.365,9.2784 12.284,9.5008 12.241,9.7128 12.106,10.376 12.109,10.383 12.586,10.418 12.857,10.438 13.026,10.49 13.057,10.563 13.14,10.761 13.04,10.873 12.698,10.964 12.24,11.086 12.209,11.11 12.149,11.39 12.067,11.77 12.035,12.376 12.085,12.598 12.126,12.781 12.154,12.79 12.618,12.766 L 13.107,12.74 Z M 10.852,10.822 C 11.423,10.653 11.443,10.634 11.418,10.275 L 11.357,9.7385 C 11.317,9.4915 11.31,9.4865 10.997,9.4887 10.615,9.4913 10.188,9.6023 10.121,9.8197 10.057,10.028 10.056,10.831 10.12,10.892 10.192,10.961 10.377,10.963 10.852,10.822 Z M 14.716,16.102 C 14.692,16.048 14.672,15.956 14.672,15.899 14.672,15.841 14.628,15.729 14.574,15.649 14.482,15.513 14.301,15.503 11.796,15.503 9.6051,15.503 9.1,15.483 9.0294,15.392 8.9126,15.242 8.9787,15.157 9.2594,15.098 9.6378,15.018 12.73,14.793 13.715,14.773 14.233,14.763 14.675,14.73 14.697,14.7 14.735,14.647 15.142,12.721 15.142,12.721 15.142,12.721 15.244,11.965 15.284,11.492 15.367,10.494 15.405,10.298 15.515,10.298 15.605,10.298 16.034,10.738 16.125,10.923 16.173,11.021 16.178,11.107 16.151,11.38 16.076,12.128 15.553,14.649 15.323,15.369 15.12,16.004 14.828,16.356 14.716,16.102 Z"/>
 <path style="fill:#ffffff" d="M 9.2629,6.9276 C 9.0431,6.7895 8.9533,6.6784 9.0233,6.6311 9.0539,6.6104 9.4711,6.5777 9.9504,6.5584 10.617,6.5316 11.035,6.4696 11.73,6.2942 13.082,5.9532 13.207,5.9392 13.501,6.0971 13.991,6.3597 14.119,6.5929 13.89,6.8036 13.741,6.9412 13.606,6.9512 11.434,6.9877 9.8763,7.0139 9.3783,7.0001 9.2629,6.9276 Z M 7.3895,15.234 7.2559,14.969 7.262,12.635 C 7.2685,10.141 7.2544,9.9048 7.0776,9.548 6.8265,9.0415 7.2243,8.8113 7.7071,9.1837 7.9497,9.3709 7.9498,9.3711 7.975,9.7514 8.01,10.278 8.0079,12.427 7.9711,13.872 7.9345,15.307 7.8987,15.5 7.6702,15.5 7.5585,15.5 7.4909,15.436 7.3895,15.234 Z M 9.6501,13.031 C 9.5712,12.681 9.5271,11.934 9.4996,10.483 9.4742,9.1488 9.4624,8.9652 9.3857,8.719 9.3387,8.5678 9.3002,8.4219 9.3002,8.3946 9.3002,8.2791 9.6197,8.3576 9.7078,8.4947 9.7826,8.611 9.8617,8.6331 10.063,8.5938 10.206,8.566 11.157,8.4125 11.931,8.2526 13.854,7.8559 14.416,7.9137 14.497,8.5168 14.509,8.6124 14.486,8.8912 14.445,9.1364 14.33,9.8176 13.714,12.815 13.677,12.868 13.66,12.894 12.877,12.938 11.938,12.966 10.905,12.997 10.001,13.054 9.957,13.11 9.8409,13.257 9.6926,13.219 9.6501,13.031 Z M 11.261,12.415 C 11.349,12.358 11.412,11.976 11.454,11.246 11.474,10.904 11.467,10.812 11.416,10.766 11.381,10.734 11.141,10.761 10.883,10.825 10.296,10.971 10.051,11.047 10.091,11.814 10.106,12.099 10.138,12.362 10.163,12.399 10.215,12.478 11.141,12.491 11.261,12.415 Z M 13.2,11.839 C 13.333,11.268 13.556,9.6667 13.58,9.106 13.601,8.6482 13.597,8.6273 13.497,8.5677 13.336,8.4717 12.542,8.5785 12.424,8.7121 12.365,8.7785 12.284,9.0009 12.241,9.2129 12.106,9.8762 12.109,9.8829 12.586,9.9179 12.857,9.9377 13.026,9.9901 13.057,10.063 13.14,10.261 13.04,10.373 12.698,10.464 12.24,10.586 12.209,10.61 12.149,10.89 12.067,11.27 12.035,11.876 12.085,12.098 12.126,12.281 12.154,12.29 12.618,12.266 L 13.107,12.24 Z M 10.852,10.322 C 11.423,10.153 11.443,10.134 11.418,9.7749 L 11.357,9.2386 C 11.317,8.9916 11.31,8.9866 10.997,8.9888 10.615,8.9914 10.188,9.1024 10.121,9.3198 10.057,9.5284 10.056,10.331 10.12,10.392 10.192,10.461 10.377,10.463 10.852,10.322 Z M 14.716,15.602 C 14.692,15.548 14.672,15.456 14.672,15.399 14.672,15.341 14.628,15.229 14.574,15.149 14.482,15.013 14.301,15.003 11.796,15.003 9.6051,15.003 9.1,14.983 9.0294,14.892 8.9126,14.742 8.9787,14.657 9.2594,14.598 9.6378,14.518 12.73,14.293 13.715,14.273 14.233,14.263 14.675,14.23 14.697,14.2 14.735,14.147 15.142,12.221 15.142,12.221 15.142,12.221 15.244,11.465 15.284,10.992 15.367,9.9943 15.405,9.7982 15.515,9.7983 15.605,9.7984 16.034,10.238 16.125,10.423 16.173,10.521 16.178,10.607 16.151,10.88 16.076,11.628 15.553,14.149 15.323,14.869 15.12,15.504 14.828,15.856 14.716,15.602 Z"/>
 <path style="opacity:0.2;fill:#ffffff" d="M 5.5 2 C 4.669 2 4 2.669 4 3.5 L 4 4 C 4 3.169 4.669 2.5 5.5 2.5 L 20 2.5 L 20 2 L 5.5 2 z"/>
</svg>

<svg xmlns="http://www.w3.org/2000/svg" width="24" height="24"><path style="opacity:.2" d="M20 20.5v2H5.5c-.831 0-1.5-.669-1.5-1.5v-2.5z"/><path style="fill:#e4e4e4" d="M20 20v2H5.5c-.831 0-1.5-.669-1.5-1.5v-2z"/><path style="opacity:.1" d="M20 19.5v1H5.5c-.831 0-1.5-.669-1.5-1.5v-2.5z"/><path style="fill:#ee4035" d="M5.5 2H20v18H5.5c-.831 0-1.5-.669-1.5-1.5v-15C4 2.669 4.669 2 5.5 2z"/><path style="opacity:.2" d="M9.263 7.428c-.22-.139-.31-.25-.24-.297.03-.02.448-.053.927-.073a7.578 7.578 0 0 0 1.78-.264c1.352-.34 1.477-.355 1.771-.197.49.263.618.496.389.706-.149.138-.284.148-2.456.185-1.558.026-2.056.012-2.171-.06zM7.39 15.733l-.134-.265.006-2.334c.007-2.494-.008-2.73-.184-3.087-.252-.507.146-.737.63-.364.242.187.242.187.267.567.035.527.033 2.676-.004 4.121C7.934 15.807 7.9 16 7.671 16c-.112 0-.18-.064-.282-.266zm2.26-2.203c-.079-.35-.123-1.097-.15-2.548-.026-1.334-.038-1.518-.114-1.764a2.473 2.473 0 0 1-.086-.324c0-.116.32-.037.408.1.075.116.154.138.355.099.143-.028 1.094-.182 1.868-.341 1.923-.397 2.485-.34 2.566.264.012.095-.011.374-.052.62-.115.68-.731 3.678-.768 3.731-.017.026-.8.07-1.739.098-1.033.031-1.937.088-1.981.144-.116.147-.264.109-.307-.079zm1.611-.616c.088-.057.151-.439.193-1.169.02-.342.013-.434-.038-.48-.035-.032-.275-.005-.533.059-.587.146-.832.222-.792.989.015.285.047.548.072.585.052.079.978.092 1.098.016zm1.939-.576c.133-.571.356-2.172.38-2.733.021-.458.017-.479-.083-.538-.161-.096-.955.01-1.073.144-.059.066-.14.289-.183.5-.135.664-.132.671.345.706.271.02.44.072.471.145.083.198-.017.31-.359.401-.458.122-.489.146-.549.426-.082.38-.114.986-.064 1.208.041.183.069.192.533.168l.489-.026zm-2.348-1.517c.571-.169.591-.188.566-.547l-.061-.537c-.04-.246-.047-.252-.36-.25-.382.003-.809.114-.876.332-.064.208-.065 1.011-.001 1.072.072.069.257.071.732-.07zm3.864 5.28a.601.601 0 0 1-.044-.203.57.57 0 0 0-.098-.25c-.092-.136-.273-.146-2.778-.146-2.19 0-2.696-.02-2.767-.111-.116-.15-.05-.235.23-.294.379-.08 3.471-.305 4.456-.325.518-.01.96-.043.982-.073.038-.053.445-1.979.445-1.979s.102-.756.142-1.229c.083-.998.121-1.194.231-1.194.09 0 .519.44.61.625.048.098.053.184.026.457-.075.748-.598 3.269-.828 3.989-.203.635-.495.987-.607.733z"/><path style="fill:#fff" d="M9.263 6.928c-.22-.138-.31-.25-.24-.297.03-.02.448-.053.927-.073a7.578 7.578 0 0 0 1.78-.264c1.352-.34 1.477-.355 1.771-.197.49.263.618.496.389.707-.149.137-.284.147-2.456.184-1.558.026-2.056.012-2.171-.06zM7.39 15.234l-.134-.265.006-2.334c.007-2.494-.008-2.73-.184-3.087-.252-.507.146-.737.63-.364.242.187.242.187.267.567.035.527.033 2.676-.004 4.121-.037 1.435-.072 1.628-.3 1.628-.112 0-.18-.064-.282-.266zm2.26-2.203c-.079-.35-.123-1.097-.15-2.548-.026-1.334-.038-1.518-.114-1.764a2.473 2.473 0 0 1-.086-.324c0-.116.32-.037.408.1.075.116.154.138.355.099.143-.028 1.094-.181 1.868-.341 1.923-.397 2.485-.34 2.566.264.012.095-.011.374-.052.62-.115.68-.731 3.678-.768 3.731-.017.026-.8.07-1.739.098-1.033.031-1.937.088-1.981.144-.116.147-.264.109-.307-.079zm1.611-.616c.088-.057.151-.439.193-1.169.02-.342.013-.434-.038-.48-.035-.032-.275-.005-.533.059-.587.146-.832.222-.792.989.015.285.047.548.072.585.052.079.978.092 1.098.016zm1.939-.576c.133-.571.356-2.172.38-2.733.021-.458.017-.479-.083-.538-.161-.096-.955.01-1.073.144-.059.066-.14.289-.183.5-.135.664-.132.67.345.706.271.02.44.072.471.145.083.198-.017.31-.359.401-.458.122-.489.146-.549.426-.082.38-.114.986-.064 1.208.041.183.069.192.533.168l.489-.026zm-2.348-1.517c.571-.169.591-.188.566-.547l-.061-.536c-.04-.247-.047-.252-.36-.25-.382.002-.809.113-.876.33-.064.21-.065 1.012-.001 1.073.072.069.257.071.732-.07zm3.864 5.28a.601.601 0 0 1-.044-.203.57.57 0 0 0-.098-.25c-.092-.136-.273-.146-2.778-.146-2.19 0-2.696-.02-2.767-.111-.116-.15-.05-.235.23-.294.379-.08 3.471-.305 4.456-.325.518-.01.96-.043.982-.073.038-.053.445-1.979.445-1.979s.102-.756.142-1.229c.083-.998.121-1.194.231-1.194.09 0 .519.44.61.625.048.098.053.184.026.457-.075.748-.598 3.269-.828 3.989-.203.635-.495.987-.607.733z"/><path style="opacity:.2;fill:#fff" d="M5.5 2C4.669 2 4 2.669 4 3.5V4c0-.831.669-1.5 1.5-1.5H20V2H5.5z"/></svg>
